!!!!SEGMENT: pl-sa--231-a-vi-35--003_anonim--litania-pater-de-caelis.krn
!!!cenid: 17xx:1398
!!!COM: Anonim
!!!COM-rismID: pe30004985
!!!CDT:
!!!CNT:
!!!OPR: Litania
!!!OTL: Pater de caelis
!!!OMV: 003
!!!PDT:
!!!AGN: Sacred; Mass
!!!SMS-siglum: PL-SA
!!!SMS-shelfmark: 231/A VI 35
!!!SMS-shelfwork: 001-003 M
!!!SMS-variant:
!!!SMS-altvar:
!!!NIFC-rismSourceID: 1001039070
!!!NIFC-islandoraID:
!!!URL-pdf-islandora:
!!!URL-scan: https://bc.bdsandomierz.pl/dlibra/publication/1585/edition/1553/content @EN{Scan in the Sandomierz Diocese Digital Library} @PL{Skany w portalu Cyfrowa Biblioteka Diecezjalna w Sandomierzu}
!!!ONB-nifc: UWAGA: części Litanii: 1. Sinfonia, 2. Kyrie, 3. Pater de caelis, 4. Sancta Maria, 5. Mater amabilis, 6. Speculum iustitiae, 7. Rosa mystica, 8. Salus infirmorum, 9. Regina angelorum, 10. Agnus Dei. Uwaga: wpisać oba teksty.
!!!AIN: 1 bass 2 cor 1 oboe 1 organ 1 soprn 1 tenor 2 violn
!!!key: C
**kern	**dynam	**kern	**dynam	**kern	**dynam	**kern	**kern	**kern	**text	**kern	**kern	**kern
*	*	*group3	*	*group3	*	*group2	*group2	*group2	*	*group1	*group1	*
*part9	*part9	*part8	*part8	*part7	*part7	*part6	*part5	*part4	*part4	*part3	*part2	*part1
*staff9	*	*staff8	*	*staff7	*	*staff6	*staff5	*staff4	*staff4	*staff3	*staff2	*staff1
*I"Fondamento.	*	*I"Violino ſecundo.	*	*I"Violino Primo	*	*I"Baſso.	*I"Tenore	*I"Canto.	*	*I"Cornu ſecundo ex. G.	*I"Cornu Primo ex G,,	*I"Oböa Prima.
*I'bc	*	*I'vl 2	*	*I'vl 1	*	*I'B	*I'T	*I'S	*	*I'cor 2 in G	*I'cor 1 in G	*I'ob 1
*Iorgan	*	*Ivioln	*	*Ivioln	*	*Ibass	*Itenor	*Isoprn	*	*Icor	*Icor	*Ioboe
*ICklav	*	*ICstr	*	*ICstr	*	*ICvox	*ICvox	*ICvox	*	*ICbras	*ICbras	*ICww
*IGcont	*	*	*	*	*	*	*	*	*	*	*	*
*clefF4	*	*clefG2	*	*clefG2	*	*clefF4	*clefC3	*clefC1	*	*clefG2	*clefG2	*clefG2
*	*	*	*	*	*	*	*	*	*	*ITrd3c5	*ITrd3c5	*
*k[]	*	*k[]	*	*k[]	*	*k[]	*k[]	*k[]	*	*k[]	*k[]	*k[]
*C:	*	*C:	*	*C:	*	*C:	*C:	*C:	*	*C:	*C:	*C:
*M4/4	*	*M4/4	*	*M4/4	*	*M4/4	*M4/4	*M4/4	*	*M4/4	*M4/4	*M4/4
*met(c)	*	*met(c)	*	*met(c)	*	*met(c)	*met(c)	*met(c)	*	*met(c)	*met(c)	*met(c)
*	*	*	*	*	*	*	*	*2\right	*	*	*	*
=1	=1	=1	=1	=1	=1	=1	=1	=1	=1	=1	=1	=1
!LO:TX:i:a:t=andante. Solo.	!	!LO:TX:i:a:t=andante Solo.	!	!LO:TX:i:a:t=andan&colon; Solo.	!	!LO:TX:i:a:t=Pater de Caelis Tacet	!LO:TX:i:a:t=Pater Tacet	!LO:TX:i:a:t=andante ſolo.	!	!LO:TX:i:a:t=Pater Tacet	!LO:TX:i:a:t=Pater de Caelis\nTacet.	!LO:TX:i:a:t=Pater Tacet
8C\L	.	8e/L	.	8cc\L	.	1ryy	1ryy	1r	.	1ryy	1ryy	1ryy
8c\J	.	[8e/J	.	[8cc\J	.	.	.	.	.	.	.	.
4C/	.	32e/LLL]	.	32cc\LLL]	.	.	.	.	.	.	.	.
.	.	32d/	.	32b\	.	.	.	.	.	.	.	.
.	.	(32f/	.	(32dd\	.	.	.	.	.	.	.	.
.	.	32e/JJJ)	.	32cc\JJJ)	.	.	.	.	.	.	.	.
.	.	(32cc\LLL	.	(32ee\LLL	.	.	.	.	.	.	.	.
.	.	32b\)	.	32dd\)	.	.	.	.	.	.	.	.
.	.	(32dd\	.	(32ff\	.	.	.	.	.	.	.	.
.	.	32cc\JJJ)	.	32ee\JJJ)	.	.	.	.	.	.	.	.
8r	.	8ee\	.	8gg\	.	.	.	.	.	.	.	.
8C\L	.	4ee\	.	4gg\	.	.	.	.	.	.	.	.
8E\	.	.	.	.	.	.	.	.	.	.	.	.
8G\J	.	8dd\	.	8ff\	.	.	.	.	.	.	.	.
=2	=2	=2	=2	=2	=2	=2	=2	=2	=2	=2	=2	=2
8c\L	.	16.eet\LL	.	16.eet\LL	.	1ryy	1ryy	1r	.	1ryy	1ryy	1ryy
!	!	!LO:N:vis=32	!	!LO:N:vis=32	!	!	!	!	!	!	!	!
.	.	(64dd\LL	.	(64dd\LL	.	.	.	.	.	.	.	.
!	!	!LO:N:vis=32	!	!LO:N:vis=32	!	!	!	!	!	!	!	!
.	.	64ee\JJJJ)	.	64ee\JJJJ)	.	.	.	.	.	.	.	.
8A\	.	(16ff\LL	.	(16ff\LL	.	.	.	.	.	.	.	.
.	.	16ee\JJ)	.	16ee\JJ)	.	.	.	.	.	.	.	.
8F\	.	8a\L	.	8a\L	.	.	.	.	.	.	.	.
8G\J	.	8b\J	.	8bt\J	.	.	.	.	.	.	.	.
.	.	8qqb/	.	8qqb/	.	.	.	.	.	.	.	.
8C/L	.	4cc\	.	4cc\	.	.	.	.	.	.	.	.
8GG/J	.	.	.	.	.	.	.	.	.	.	.	.
4C/	.	4r	.	4r	.	.	.	.	.	.	.	.
=3	=3	=3	=3	=3	=3	=3	=3	=3	=3	=3	=3	=3
!LO:TX:t=P:problem=mixed beam	!	!	!	!	!	!	!	!	!	!	!	!
8C/L	.	8g/L	.	[4ee\	.	1ryy	1ryy	1r	.	1ryy	1ryy	1ryy
8c\	.	8g/	.	.	.	.	.	.	.	.	.	.
*	*	*	*	*Xtuplet	*	*	*	*	*	*	*	*
!	!	!	!	!LO:TUP:global:problem=triola bez liczby i łuku	!	!	!	!	!	!	!	!
8A\	.	8g/	.	24ee\LL]	.	.	.	.	.	.	.	.
.	.	.	.	24ff#X\	.	.	.	.	.	.	.	.
.	.	.	.	24gg\JJ	.	.	.	.	.	.	.	.
8A\J	.	8g/J	.	24aa\LL	.	.	.	.	.	.	.	.
.	.	.	.	24bb\	.	.	.	.	.	.	.	.
.	.	.	.	24ccc\JJ	.	.	.	.	.	.	.	.
!LO:TX:t=P:problem=mixed beam	!	!	!	!	!	!	!	!	!	!	!	!
8BB/L	.	8g/L	.	[4dd\	.	.	.	.	.	.	.	.
8B\	.	8g/	.	.	.	.	.	.	.	.	.	.
8G\	.	8b/	.	24dd\LL]	.	.	.	.	.	.	.	.
.	.	.	.	24ee\	.	.	.	.	.	.	.	.
.	.	.	.	24ff#X\JJ	.	.	.	.	.	.	.	.
8G\J	.	8b/J	.	24gg\LL	.	.	.	.	.	.	.	.
.	.	.	.	24aa\	.	.	.	.	.	.	.	.
.	.	.	.	24bb\JJ	.	.	.	.	.	.	.	.
=4	=4	=4	=4	=4	=4	=4	=4	=4	=4	=4	=4	=4
8A\L	.	8f#X/L	.	[4cc\	.	1ryy	1ryy	1r	.	1ryy	1ryy	1ryy
8A\	.	8f#/	.	.	.	.	.	.	.	.	.	.
8D\	.	8a/	.	24cc\LL]	.	.	.	.	.	.	.	.
.	.	.	.	24dd\	.	.	.	.	.	.	.	.
.	.	.	.	24ee\JJ	.	.	.	.	.	.	.	.
8D\J	.	8f#/J	.	24ff#X\LL	.	.	.	.	.	.	.	.
.	.	.	.	24gg\	.	.	.	.	.	.	.	.
.	.	.	.	24aa\JJ	.	.	.	.	.	.	.	.
!LO:TX:t=P:problem=mixed beam	!	!LO:TX:t=P:problem=mixed beam	!	!	!	!	!	!	!	!	!	!
8G\L	.	16d/LL	.	(16gg\LL	.	.	.	.	.	.	.	.
.	.	16b\JJ	.	16dd\JJ)	.	.	.	.	.	.	.	.
8GG/	.	4.bt\	.	4.ddT\	.	.	.	.	.	.	.	.
8BB/	.	.	.	.	.	.	.	.	.	.	.	.
8GG/J	.	.	.	.	.	.	.	.	.	.	.	.
!	!	!	!	!LO:LB:g=original	!	!	!	!	!	!	!	!
=5	=5	=5	=5	=5	=5	=5	=5	=5	=5	=5	=5	=5
8r	.	16cc\LL	.	(16aa\LL	.	1ryy	1ryy	1r	.	1ryy	1ryy	1ryy
.	.	16a\JJ	.	16cc\JJ)	.	.	.	.	.	.	.	.
8D\L	.	4.aT\	.	4.ccT\	.	.	.	.	.	.	.	.
8F#X\	.	.	.	.	.	.	.	.	.	.	.	.
8D\J	.	.	.	.	.	.	.	.	.	.	.	.
*	*	*Xtuplet	*	*	*	*	*	*	*	*	*	*
8G\L	.	24b\LL	.	24b\LL	.	.	.	.	.	.	.	.
.	.	24cc\	.	24cc\	.	.	.	.	.	.	.	.
.	.	24dd\JJ	.	24dd\JJ	.	.	.	.	.	.	.	.
8B\	.	24ee\LL	.	24ee\LL	.	.	.	.	.	.	.	.
.	.	24ff#X\	.	24ff#X\	.	.	.	.	.	.	.	.
.	.	24gg\JJ	.	24gg\JJ	.	.	.	.	.	.	.	.
8F#X\	.	24aa\LL	.	24aa\LL	.	.	.	.	.	.	.	.
.	.	24ff#\	.	24ff#\	.	.	.	.	.	.	.	.
.	.	24dd\JJ	.	24dd\JJ	.	.	.	.	.	.	.	.
!	!	!LO:TUP:problem=klamra łukowa	!	!	!	!	!	!	!	!	!	!
8D\J	.	24cc\LL	.	24cc\LL	.	.	.	.	.	.	.	.
.	.	24b\	.	24b\	.	.	.	.	.	.	.	.
.	.	24cc\JJ	.	24cc\JJ	.	.	.	.	.	.	.	.
=6	=6	=6	=6	=6	=6	=6	=6	=6	=6	=6	=6	=6
8G\L	.	24b\LL	.	24b\LL	.	1ryy	1ryy	1r	.	1ryy	1ryy	1ryy
.	.	24cc\	.	24cc\	.	.	.	.	.	.	.	.
.	.	24dd\JJ	.	24dd\JJ	.	.	.	.	.	.	.	.
8B\	.	24ee\LL	.	24ee\LL	.	.	.	.	.	.	.	.
.	.	24ff#X\	.	24ff#X\	.	.	.	.	.	.	.	.
.	.	24gg\JJ	.	24gg\JJ	.	.	.	.	.	.	.	.
!	!	!LO:LB:g=original	!	!	!	!	!	!	!	!	!	!
8F#X\	.	24aa\LL	.	24aa\LL	.	.	.	.	.	.	.	.
.	.	24ff#X\	.	24ff#\	.	.	.	.	.	.	.	.
.	.	24dd\JJ	.	24dd\JJ	.	.	.	.	.	.	.	.
!	!	!LO:TUP:problem=klamra łukowa	!	!	!	!	!	!	!	!	!	!
8D\J	.	24cc\LL	.	24cc\LL	.	.	.	.	.	.	.	.
.	.	24b\	.	24b\	.	.	.	.	.	.	.	.
.	.	24cc\JJ	.	24cc\JJ	.	.	.	.	.	.	.	.
!LO:TX:t=P:problem=mixed beam	!	!	!	!	!	!	!	!	!	!	!	!
8G\L	.	32b\KLL	.	(32b\KLL	.	.	.	.	.	.	.	.
.	.	16.gg\JJ	.	16.gg\JJ)	.	.	.	.	.	.	.	.
8C/	.	24a\LL	.	24a\LL	.	.	.	.	.	.	.	.
.	.	24cc\	.	24cc\	.	.	.	.	.	.	.	.
.	.	24ee\JJ	.	24ee\JJ	.	.	.	.	.	.	.	.
.	.	8qqg/	.	8qqg/	.	.	.	.	.	.	.	.
8D/	.	4f#X/	.	4f#Xt/	.	.	.	.	.	.	.	.
8DD/J	.	.	.	.	.	.	.	.	.	.	.	.
=7	=7	=7	=7	=7	=7	=7	=7	=7	=7	=7	=7	=7
!LO:TX:t=P:problem=mixed beam	!	!LO:SIC:v:s=8qqf#/	!	!LO:SIC:v:s=8qqf#/	!	!	!	!	!	!	!	!
.	.	8qqf/	.	8qqf/	.	.	.	.	.	.	.	.
8GG/L	.	4g/	.	4g/	.	1ryy	1ryy	1r	.	1ryy	1ryy	1ryy
16G\L	.	.	.	.	.	.	.	.	.	.	.	.
16Fn\JJ	.	.	.	.	.	.	.	.	.	.	.	.
8E\L	.	4r	.	4r	.	.	.	.	.	.	.	.
8D\J	.	.	.	.	.	.	.	.	.	.	.	.
8C\L	.	(16cc\LL	.	(16cc\LL	.	.	.	.	.	.	.	.
.	.	16gg\JJ)	.	16bb-X\JJ)	.	.	.	.	.	.	.	.
8E\	.	16r	.	16r	.	.	.	.	.	.	.	.
.	.	16gg\	.	16bb-\	.	.	.	.	.	.	.	.
8F\	.	(16ff\LL	.	(16aa\LL	.	.	.	.	.	.	.	.
.	.	16cc\JJ)	.	16ff\JJ)	.	.	.	.	.	.	.	.
!	!LO:DY:a:t=pia	!	!	!	!	!	!	!	!	!	!	!
8A\J	p	16r	.	16r	.	.	.	.	.	.	.	.
!	!	!	!LO:DY:a:t=pia&colon;	!	!LO:DY:a:t=pia	!	!	!	!	!	!	!
.	.	16a/	p	16cc\	p	.	.	.	.	.	.	.
=8	=8	=8	=8	=8	=8	=8	=8	=8	=8	=8	=8	=8
!LO:TX:t=P:problem=mixed beam	!	!	!	!	!	!	!	!	!	!	!	!
8C\L	.	(16g/LL	.	(16b-X/LL	.	1ryy	1ryy	1r	.	1ryy	1ryy	1ryy
.	.	16e/JJ)	.	16g/JJ)	.	.	.	.	.	.	.	.
8E\	.	16r	.	16r	.	.	.	.	.	.	.	.
.	.	16g/	.	16b-/	.	.	.	.	.	.	.	.
.	.	8qqg/	.	8qqb-/	.	.	.	.	.	.	.	.
8F\	.	4f/	.	4a/	.	.	.	.	.	.	.	.
8FF/J	.	.	.	.	.	.	.	.	.	.	.	.
!LO:LB:g=original	!LO:DY:a:t=for&colon;	!	!	!LO:LB:g=original	!LO:DY:a:t=for	!	!	!	!	!	!	!
8D\L	f	(16dd\LL	.	16dd\LL	f	.	.	.	.	.	.	.
.	.	16aa\JJ)	.	16ccc\JJ	.	.	.	.	.	.	.	.
8F#X\	.	16r	.	16r	.	.	.	.	.	.	.	.
.	.	16aa\	.	16ccc\	.	.	.	.	.	.	.	.
8G\	.	(16gg\LL	.	(16bbn\LL	.	.	.	.	.	.	.	.
.	.	16dd\JJ)	.	16gg\JJ)	.	.	.	.	.	.	.	.
!	!	!	!LO:DY:a:t=pia&colon;	!	!	!	!	!	!	!	!	!
8B\J	.	16r	p	16r	.	.	.	.	.	.	.	.
!	!	!	!	!	!LO:DY:a:t=pia.	!	!	!	!	!	!	!
.	.	16b/	.	16dd\	p	.	.	.	.	.	.	.
=9	=9	=9	=9	=9	=9	=9	=9	=9	=9	=9	=9	=9
!LO:TX:t=P:problem=mixed beam	!LO:DY:a:t=pia&colon;	!	!	!	!	!	!	!	!	!	!	!
8D\L	p	(16a/LL	.	(16cc\LL	.	1ryy	1ryy	1r	.	1ryy	1ryy	1ryy
.	.	16f#X/JJ)	.	16a\JJ)	.	.	.	.	.	.	.	.
8F#X\	.	16r	.	16r	.	.	.	.	.	.	.	.
.	.	16a/	.	16cc\	.	.	.	.	.	.	.	.
.	.	8qqa/	.	8qqcc/	.	.	.	.	.	.	.	.
!	!	!	!	!	!LO:DY:a:t=for.	!	!	!	!	!	!	!
8G\	.	4g/	.	4b\	f	.	.	.	.	.	.	.
8GG/J	.	.	.	.	.	.	.	.	.	.	.	.
!	!LO:DY:a:t=for&colon;	!	!LO:DY:a:t=for	!	!	!	!	!	!	!	!	!
8C/L	f	8ee\	f	8gg\	.	.	.	.	.	.	.	.
8C/	.	4ee\	.	4gg\	.	.	.	.	.	.	.	.
8C/	.	.	.	.	.	.	.	.	.	.	.	.
8C/J	.	(16dd\LL	.	(16ff\LL	.	.	.	.	.	.	.	.
.	.	16cc\JJ)	.	16ee\JJ)	.	.	.	.	.	.	.	.
=10	=10	=10	=10	=10	=10	=10	=10	=10	=10	=10	=10	=10
!LO:TX:t=P:problem=mixed beam	!	!LO:TX:t=P:problem=mixed beam	!	!LO:TX:t=P:problem=mixed beam	!	!	!	!	!	!	!	!
8G\L	.	8dd\L	.	8ff\L	.	1ryy	1ryy	1r	.	1ryy	1ryy	1ryy
8GG|</	.	8G/	.	8G|</	.	.	.	.	.	.	.	.
8BB|</	.	8B/	.	8B|</	.	.	.	.	.	.	.	.
!	!	!LO:LB:g=original	!	!	!	!	!	!	!	!	!	!
8D|</J	.	8d/J	.	8d|</J	.	.	.	.	.	.	.	.
8G\L	.	8dd\	.	8ff\	.	.	.	.	.	.	.	.
8GG/	.	4dd\	.	4ff\	.	.	.	.	.	.	.	.
8GG/	.	.	.	.	.	.	.	.	.	.	.	.
8GG/J	.	(16cc\LL	.	(16ee\LL	.	.	.	.	.	.	.	.
.	.	16b\JJ)	.	16dd\JJ)	.	.	.	.	.	.	.	.
=11	=11	=11	=11	=11	=11	=11	=11	=11	=11	=11	=11	=11
!	!	!LO:TX:t=P:problem=mixed beam	!	!LO:TX:t=P:problem=mixed beam	!	!	!	!	!	!	!	!
8C\L	.	8cc\L	.	8ee\L	.	1ryy	1ryy	1r	.	1ryy	1ryy	1ryy
8C\	.	8c/	.	8c|</	.	.	.	.	.	.	.	.
8E\	.	8e/	.	8e|</	.	.	.	.	.	.	.	.
8G\J	.	8g/J	.	8g|</J	.	.	.	.	.	.	.	.
!LO:TX:t=P:problem=mixed beam	!	!	!	!	!	!	!	!	!	!	!	!
8C/L	.	(16cc\LL	.	(16ee\LL	.	.	.	.	.	.	.	.
.	.	16dd\J)	.	16ff\J)	.	.	.	.	.	.	.	.
8c\	.	8cc\J	.	8ee\J	.	.	.	.	.	.	.	.
8B\	.	16r	.	16r	.	.	.	.	.	.	.	.
.	.	16dd\KL	.	16ff\KL	.	.	.	.	.	.	.	.
8B\J	.	8cc\J	.	8ee\J	.	.	.	.	.	.	.	.
=12	=12	=12	=12	=12	=12	=12	=12	=12	=12	=12	=12	=12
8A\L	.	16r	.	16r	.	1ryy	1ryy	1r	.	1ryy	1ryy	1ryy
.	.	16dd\KL	.	16ff\KL	.	.	.	.	.	.	.	.
8A\	.	8cc\J	.	8ee\J	.	.	.	.	.	.	.	.
8E\	.	16r	.	16r	.	.	.	.	.	.	.	.
.	.	16dd\KL	.	16ff\KL	.	.	.	.	.	.	.	.
8C\J	.	8cc\J	.	8ee\J	.	.	.	.	.	.	.	.
!LO:TX:t=P:problem=mixed beam	!	!	!	!	!	!	!	!	!	!	!	!
8F\L	.	4ff\	.	4aa\	.	.	.	.	.	.	.	.
8D\	.	.	.	.	.	.	.	.	.	.	.	.
8G\	.	(16ee\LL	.	(16gg\LL	.	.	.	.	.	.	.	.
.	.	16dd\)	.	16ff\)	.	.	.	.	.	.	.	.
8GG/J	.	(16dd\	.	(16ff\	.	.	.	.	.	.	.	.
.	.	16cc\JJ)	.	16ee\JJ)	.	.	.	.	.	.	.	.
!	!	!	!	!LO:LB:g=original	!	!	!	!	!	!	!	!
=13	=13	=13	=13	=13	=13	=13	=13	=13	=13	=13	=13	=13
!LO:TX:t=P:problem=mixed beam	!LO:DY:a:t=pia	!	!LO:DY:a	!LO:N:vis=16.	!LO:DY:a	!	!	!	!	!	!	!
!	!	!	!	!	!LO:DY:a:t=pia.	!	!	!	!	!	!	!
!	!	!	!LO:DY:a:t=pia.	!	!	!	!	!	!	!	!	!
8C/L	p	16cc\LL	p	(16ee\LL	p	1ryy	1ryy	1r	.	1ryy	1ryy	1ryy
.	.	16dd\J	.	16ff\J)	.	.	.	.	.	.	.	.
8c\	.	8cc\J	.	8ee\J	.	.	.	.	.	.	.	.
8B\	.	16r	.	16r	.	.	.	.	.	.	.	.
.	.	16dd\KL	.	16ff\KL	.	.	.	.	.	.	.	.
8B\J	.	8cc\J	.	8ee\J	.	.	.	.	.	.	.	.
8A\L	.	16r	.	16r	.	.	.	.	.	.	.	.
.	.	16dd\KL	.	16ff\KL	.	.	.	.	.	.	.	.
8A\	.	8cc\J	.	8ee\J	.	.	.	.	.	.	.	.
8E\	.	16r	.	16r	.	.	.	.	.	.	.	.
.	.	16dd\KL	.	16ff\KL	.	.	.	.	.	.	.	.
8C\J	.	8cc\J	.	8ee\J	.	.	.	.	.	.	.	.
=14	=14	=14	=14	=14	=14	=14	=14	=14	=14	=14	=14	=14
!LO:TX:t=P:problem=mixed beam	!	!	!	!	!	!	!	!	!	!	!	!
8F\L	.	4a/	.	4ff\	.	1ryy	1ryy	1r	.	1ryy	1ryy	1ryy
8D\	.	.	.	.	.	.	.	.	.	.	.	.
8G\	.	(16g/LL	.	(16ee\LL	.	.	.	.	.	.	.	.
.	.	16f/)	.	16dd\)	.	.	.	.	.	.	.	.
8GG/J	.	(16f/	.	(16dd\	.	.	.	.	.	.	.	.
.	.	16e/JJ)	.	16cc\JJ)	.	.	.	.	.	.	.	.
!	!LO:DY:a:t=for&colon;	!LO:TX:t=P:problem=mixed beam	!LO:DY:a:t=for	!	!LO:DY:a:t=for	!	!	!	!	!	!	!
8C\L	f	16e/LL	f	16cc\LL	f	.	.	.	.	.	.	.
.	.	16ccc\	.	16ccc\	.	.	.	.	.	.	.	.
8D\	.	16bb\	.	16bb\	.	.	.	.	.	.	.	.
.	.	16aa\JJ	.	16aa\JJ	.	.	.	.	.	.	.	.
8E\	.	16gg\LL	.	16gg\LL	.	.	.	.	.	.	.	.
.	.	16ff\	.	16ff\	.	.	.	.	.	.	.	.
8F\J	.	16ee\	.	16ee\	.	.	.	.	.	.	.	.
.	.	16dd\JJ	.	16dd\JJ	.	.	.	.	.	.	.	.
=15	=15	=15	=15	=15	=15	=15	=15	=15	=15	=15	=15	=15
!LO:TX:t=P:problem=mixed beam	!	!	!	!	!	!	!	!	!	!	!	!
8G\L	.	4cc\	.	4cc\	.	1ryy	1ryy	1r	.	1ryy	1ryy	1ryy
8F\	.	.	.	.	.	.	.	.	.	.	.	.
8G\	.	4ddT\	.	4ddT\	.	.	.	.	.	.	.	.
8GG/J	.	.	.	.	.	.	.	.	.	.	.	.
!LO:TX:t=P:problem=fermata above/below	!	!	!	!	!	!	!	!	!	!	!	!
4C;;/	.	8cc\L	.	8cc\L	.	.	.	.	.	.	.	.
.	.	8g\J	.	8g\J	.	.	.	.	.	.	.	.
!	!	!LO:TX:t=P:problem=fermata above/below	!	!	!	!	!	!	!	!	!	!
4r	.	4c;;/	.	4c;;/	.	.	.	.	.	.	.	.
!LO:LB:g=original	!	!LO:LB:g=original	!	!	!	!	!	!	!	!	!	!
=16	=16	=16	=16	=16	=16	=16	=16	=16	=16	=16	=16	=16
!LO:TX:t=P:problem=mixed beam	!LO:DY:a:t=pia.	!	!LO:DY:a:t=pia.	!	!	!	!	!	!	!	!	!
!	!	!	!	!	!LO:DY:a:t=pia&colon;	!	!	!	!	!	!	!
8C/L	p	8e/L	p	8cc\L	p	1ryy	1ryy	8cc\	Pa-	1ryy	1ryy	1ryy
8c\J	.	[8e/J	.	[8cc\J	.	.	.	8cc\	-ter	.	.	.
4C/	.	32e/LLL]	.	32cc\LLL]	.	.	.	(32cc\LLL	de	.	.	.
.	.	32d/	.	32b\	.	.	.	32b\)	.	.	.	.
.	.	(32f/	.	(32dd\	.	.	.	(32dd\	.	.	.	.
.	.	32e/JJJ)	.	32cc\JJJ)	.	.	.	32cc\JJJ)	.	.	.	.
.	.	(32cc\LLL	.	(32ee\LLL	.	.	.	(32ee\LLL	.	.	.	.
.	.	32b\)	.	32dd\)	.	.	.	32dd\)	.	.	.	.
.	.	(32dd\	.	(32ff\	.	.	.	(32ff\	.	.	.	.
.	.	32cc\JJJ	.	32ee\JJJ)	.	.	.	32ee\JJJ)	.	.	.	.
8r	.	8ee\)	.	8gg\	.	.	.	8gg\	Cae-	.	.	.
8C\L	.	4ee\	.	4gg\	.	.	.	4gg\	-lis	.	.	.
8E\	.	.	.	.	.	.	.	.	.	.	.	.
8G\J	.	8dd\	.	8ff\	.	.	.	8ff\	de	.	.	.
=17	=17	=17	=17	=17	=17	=17	=17	=17	=17	=17	=17	=17
8c\L	.	16.gT/LL	.	16.eet\LL	.	1ryy	1ryy	8ee\	Cae-	1ryy	1ryy	1ryy
!	!	!LO:N:vis=32	!	!LO:N:vis=32	!	!	!	!	!	!	!	!
.	.	(64f/LL	.	(64dd\LL	.	.	.	.	.	.	.	.
!	!	!LO:N:vis=32	!	!LO:N:vis=32	!	!	!	!	!	!	!	!
.	.	64g/JJJJ)	.	64ee'\JJJJ)	.	.	.	.	.	.	.	.
8A\	.	(16a/LL	.	16ff\LL	.	.	.	(16ff\LL	-lis	.	.	.
.	.	16f/JJ)	.	16dd\JJ	.	.	.	16dd\JJ)	.	.	.	.
8F\	.	8c/L	.	8a\L	.	.	.	8b\L	De-	.	.	.
8G\J	.	8f/J	.	8b\J	.	.	.	8cc\J	.	.	.	.
.	.	8qqf/	.	8qqb/	.	.	.	8qqb/	.	.	.	.
8c\L	.	4e/	.	4cc\	.	.	.	4cc\	-us	.	.	.
8G\J	.	.	.	.	.	.	.	.	.	.	.	.
4C/	.	4r	.	4r	.	.	.	4r	.	.	.	.
!	!	!	!	!LO:LB:g=original	!	!	!	!	!	!	!	!
=18	=18	=18	=18	=18	=18	=18	=18	=18	=18	=18	=18	=18
!	!	!LO:TX:t=P:problem=mixed beam	!	!	!	!	!	!	!	!	!	!
4C/	.	8g/L	.	8ee\L	.	1ryy	1ryy	4ee\	mi-	1ryy	1ryy	1ryy
.	.	8ee\	.	8ccc\	.	.	.	.	.	.	.	.
8r	.	8g/	.	8ee\	.	.	.	24ee\LL	-se-	.	.	.
.	.	.	.	.	.	.	.	24dd\	.	.	.	.
.	.	.	.	.	.	.	.	24cc\JJ	.	.	.	.
*	*	*	*	*	*	*	*	*Xtuplet	*	*	*	*
8C/	.	8g/J	.	8ee\J	.	.	.	24gg\LL	.	.	.	.
.	.	.	.	.	.	.	.	24ff#X\	.	.	.	.
.	.	.	.	.	.	.	.	24ee\JJ	.	.	.	.
!	!	!LO:TX:t=P:problem=mixed beam	!	!	!	!	!	!	!	!	!	!
.	.	.	.	.	.	.	.	8qqee/	.	.	.	.
4BB/	.	8g/L	.	8dd\L	.	.	.	4dd\	-re-	.	.	.
.	.	8dd\	.	8bb\	.	.	.	.	.	.	.	.
*	*	*	*	*	*	*	*	*tuplet	*	*	*	*
8r	.	8g/	.	8dd\	.	.	.	24dd\LL	.	.	.	.
.	.	.	.	.	.	.	.	24cc\	.	.	.	.
.	.	.	.	.	.	.	.	24b\JJ	.	.	.	.
*	*	*	*	*	*	*	*	*Xtuplet	*	*	*	*
8BB/	.	8g/J	.	8dd\J	.	.	.	24gg\LL	.	.	.	.
.	.	.	.	.	.	.	.	24dd\	.	.	.	.
.	.	.	.	.	.	.	.	24b\JJ	.	.	.	.
=19	=19	=19	=19	=19	=19	=19	=19	=19	=19	=19	=19	=19
!	!	!LO:SIC:v:s=8f#	!	!	!	!	!	!	!	!	!	!
!	!	!LO:TX:t=P:problem=mixed beam	!	!	!	!	!	!	!	!	!	!
.	.	.	.	.	.	.	.	8qqb/	.	.	.	.
4AA/	.	8f/L	.	8cc\L	.	1ryy	1ryy	4cc\	.	1ryy	1ryy	1ryy
.	.	8cc\	.	8aa\	.	.	.	.	.	.	.	.
8r	.	8a\	.	8cc\	.	.	.	24aa\LL	.	.	.	.
.	.	.	.	.	.	.	.	24gg\	.	.	.	.
!	!	!	!	!	!	!	!	!LO:TX:t=P:problem=♯ above	!	!	!	!
.	.	.	.	.	.	.	.	24ff#X\JJ	.	.	.	.
8D\	.	8a\J	.	8cc\J	.	.	.	24ee\LL	-re	.	.	.
.	.	.	.	.	.	.	.	24dd\	.	.	.	.
.	.	.	.	.	.	.	.	24cc\JJ	.	.	.	.
!LO:TX:t=P:problem=mixed beam	!	!	!	!	!	!	!	!	!	!	!	!
!	!	!	!	!	!	!	!	!LO:LB:g=original	!	!	!	!
8D\L	.	8a/L	.	8cc\L	.	.	.	4ccT\	no-	.	.	.
8D\	.	8a/	.	8cc\	.	.	.	.	.	.	.	.
.	.	.	.	.	.	.	.	8qqcc/	.	.	.	.
8G\	.	8g/	.	8b\	.	.	.	4b\	-bis	.	.	.
8GG/J	.	8g/J	.	8b\J	.	.	.	.	.	.	.	.
=20	=20	=20	=20	=20	=20	=20	=20	=20	=20	=20	=20	=20
8G\L	.	8b\L	.	8dd\L	.	1ryy	1ryy	4dd\	fi-	1ryy	1ryy	1ryy
8G\	.	8b\	.	8dd\	.	.	.	.	.	.	.	.
*	*	*	*	*	*	*	*	*tuplet	*	*	*	*
!	!	!	!	!	!	!	!	!LO:TUP:problem=klamra łukowa	!	!	!	!
8G\	.	8b\	.	8dd\	.	.	.	24b\LL	-li	.	.	.
.	.	.	.	.	.	.	.	24a\	.	.	.	.
.	.	.	.	.	.	.	.	24g\JJ	.	.	.	.
8G\J	.	8dd\J	.	8ffn\J	.	.	.	8ffn\	Re-	.	.	.
!LO:TX:t=P:problem=mixed beam	!	!	!	!	!	!	!	!	!	!	!	!
8G\L	.	4dd\	.	4ff\	.	.	.	4ff\	-dem-	.	.	.
8G\	.	.	.	.	.	.	.	.	.	.	.	.
.	.	8qqdd/	.	8qqff/	.	.	.	8qqff/	.	.	.	.
8C/	.	4cc\	.	4ee\	.	.	.	4ee\	-ptor	.	.	.
8C/J	.	.	.	.	.	.	.	.	.	.	.	.
=21	=21	=21	=21	=21	=21	=21	=21	=21	=21	=21	=21	=21
8A\L	.	8cc#X\L	.	8ee\L	.	1ryy	1ryy	4ee\	mun-	1ryy	1ryy	1ryy
8A\	.	8cc#\	.	8ee\	.	.	.	.	.	.	.	.
.	.	.	.	.	.	.	.	8qqdd/	.	.	.	.
!	!	!	!	!	!	!	!	!LO:TUP:problem=klamra łukowa	!	!	!	!
8A\	.	8cc#\	.	8ee\	.	.	.	24cc#X\LL	.	.	.	.
.	.	.	.	.	.	.	.	24b\	.	.	.	.
.	.	.	.	.	.	.	.	24a\JJ	.	.	.	.
8A\J	.	8ee\J	.	8gg\J	.	.	.	8gg\	-di	.	.	.
8A\L	.	4ee\	.	4gg\	.	.	.	4gg\	De-	.	.	.
8A\	.	.	.	.	.	.	.	.	.	.	.	.
.	.	8qqee/	.	8qqgg/	.	.	.	8qqgg/	.	.	.	.
8D\	.	4dd\	.	4ff#X\	.	.	.	4ff#X\	-us	.	.	.
8D\J	.	.	.	.	.	.	.	.	.	.	.	.
=22	=22	=22	=22	=22	=22	=22	=22	=22	=22	=22	=22	=22
!LO:TX:t=P:problem=mixed beam	!	!	!	!	!	!	!	!	!	!	!	!
8GG/L	.	8b\	.	8gg\	.	1ryy	1ryy	8gg\	mi-	1ryy	1ryy	1ryy
8G\	.	4g/	.	4b\	.	.	.	4b\	.	.	.	.
8GG/	.	.	.	.	.	.	.	.	.	.	.	.
8G\J	.	4a/	.	4cc\	.	.	.	8ccn\	-se-	.	.	.
!LO:TX:t=P:problem=mixed beam	!	!	!	!	!	!	!	!	!	!	!	!
8GG/L	.	.	.	.	.	.	.	8cc\	-re-	.	.	.
8G\	.	(4b/	.	4dd\	.	.	.	4dd\	.	.	.	.
8GG/	.	.	.	.	.	.	.	.	.	.	.	.
8D/J	.	16cc/LL	.	(16ee\LL	.	.	.	(16ee\LL	-re	.	.	.
.	.	16a/JJ)	.	16ff#X\JJ)	.	.	.	16ff#X\JJ)	.	.	.	.
!	!	!LO:LB:g=original	!	!	!	!	!	!	!	!	!	!
=23	=23	=23	=23	=23	=23	=23	=23	=23	=23	=23	=23	=23
!LO:TX:t=P:problem=mixed beam	!	!	!	!	!	!	!	!	!	!	!	!
8GG/L	.	8b/	.	8gg\	.	1ryy	1ryy	8gg\	mi-	1ryy	1ryy	1ryy
8G\	.	4g/	.	4b\	.	.	.	4b\	.	.	.	.
8GG/	.	.	.	.	.	.	.	.	.	.	.	.
8G\J	.	4a/	.	4cc\	.	.	.	8cc\	-se-	.	.	.
!LO:TX:t=P:problem=mixed beam	!	!	!	!	!	!	!	!	!	!	!	!
8GG/L	.	.	.	.	.	.	.	8cc\	-re-	.	.	.
8G\	.	4b/	.	4dd\	.	.	.	4dd\	.	.	.	.
8GG/	.	.	.	.	.	.	.	.	.	.	.	.
8D/J	.	(16cc/LL	.	(16ee\LL	.	.	.	(16ee\LL	.	.	.	.
.	.	16a/JJ)	.	16ff#X\JJ)	.	.	.	16ff#X\JJ)	.	.	.	.
!LO:LB:g=original	!	!	!	!	!	!	!	!	!	!	!	!
=24	=24	=24	=24	=24	=24	=24	=24	=24	=24	=24	=24	=24
8GG/L	.	8b/	.	8gg\	.	1ryy	1ryy	8gg\	.	1ryy	1ryy	1ryy
8GG/	.	4b/	.	4dd\	.	.	.	4dd\	.	.	.	.
8GG/	.	.	.	.	.	.	.	.	.	.	.	.
8GG/J	.	(16a/LL	.	(16cc\LL	.	.	.	(16cc\LL	.	.	.	.
.	.	16g/JJ)	.	16b\JJ)	.	.	.	16b\JJ)	.	.	.	.
!	!	!	!	!	!	!	!	!LO:LB:g=original	!	!	!	!
8r	.	8r	.	8r	.	.	.	8aa\	.	.	.	.
8D\L	.	4a/	.	4cc\	.	.	.	4cc\	.	.	.	.
8D\	.	.	.	.	.	.	.	.	.	.	.	.
8D\J	.	(16g/LL	.	(16b\LL	.	.	.	(16b\LL	-re	.	.	.
.	.	16f#X/JJ)	.	16a\JJ)	.	.	.	16a\JJ)	.	.	.	.
=25	=25	=25	=25	=25	=25	=25	=25	=25	=25	=25	=25	=25
8GG/L	.	8d/L	.	(32b/LLL	.	1ryy	1ryy	(32b\LLL	no-	1ryy	1ryy	1ryy
.	.	.	.	32a/JJ	.	.	.	32a\JJ	.	.	.	.
.	.	.	.	8.g/J)	.	.	.	8.g\J)	.	.	.	.
8GG/	.	8d/	.	.	.	.	.	.	.	.	.	.
8D/	.	8f#X/	.	4aT/	.	.	.	4aT\	.	.	.	.
8D/J	.	8f#/J	.	.	.	.	.	.	.	.	.	.
!LO:TX:t=P:problem=mixed beam	!	!	!	!	!	!	!	!	!	!	!	!
8GG/L	.	4g/	.	4g/	.	.	.	4g\	-bis	.	.	.
8G\	.	.	.	.	.	.	.	.	.	.	.	.
8D\	.	4r	.	4r	.	.	.	4r	.	.	.	.
!	!LO:DY:a:t=for&colon;	!	!	!	!	!	!	!	!	!	!	!
8BB\J	f	.	.	.	.	.	.	.	.	.	.	.
!	!	!	!	!LO:LB:g=original	!	!	!	!	!	!	!	!
=26	=26	=26	=26	=26	=26	=26	=26	=26	=26	=26	=26	=26
!	!	!	!LO:DY:a:t=for&colon;	!	!	!	!	!	!	!	!	!
!	!	!	!	!	!LO:DY:a:t=for	!	!	!	!	!	!	!
8GG/L	.	8b\	f	8dd\	f	1ryy	1ryy	1r	.	1ryy	1ryy	1ryy
8GG/	.	4b\	.	4dd\	.	.	.	.	.	.	.	.
8GG/	.	.	.	.	.	.	.	.	.	.	.	.
8GG/J	.	(16a\LL	.	(16cc\LL	.	.	.	.	.	.	.	.
.	.	16g\JJ)	.	16b\JJ)	.	.	.	.	.	.	.	.
!	!	!	!	!LO:TX:t=P:problem=mixed beam	!	!	!	!	!	!	!	!
8D|>\L	.	8a/L	.	8cc\L	.	.	.	.	.	.	.	.
8D|>\	.	8d/	.	8d/	.	.	.	.	.	.	.	.
8F#X|>\	.	8f#X/	.	8f#X/	.	.	.	.	.	.	.	.
8A|>\J	.	8a/J	.	8a/J	.	.	.	.	.	.	.	.
=27	=27	=27	=27	=27	=27	=27	=27	=27	=27	=27	=27	=27
8D\L	.	8cc\	.	8aa\	.	1ryy	1ryy	1r	.	1ryy	1ryy	1ryy
8D\	.	4a/	.	4cc\	.	.	.	.	.	.	.	.
8D\	.	.	.	.	.	.	.	.	.	.	.	.
8D\J	.	(16g/LL	.	(16b\LL	.	.	.	.	.	.	.	.
.	.	16f#X/JJ)	.	16a\JJ)	.	.	.	.	.	.	.	.
!LO:TX:t=P:problem=mixed beam	!	!	!	!	!	!	!	!	!	!	!	!
8G\L	.	8g/L	.	8b/L	.	.	.	.	.	.	.	.
8GG|</	.	8G/	.	8G/	.	.	.	.	.	.	.	.
8BB|</	.	8B/	.	8B/	.	.	.	.	.	.	.	.
8D|</J	.	8d/J	.	8d/J	.	.	.	.	.	.	.	.
=28	=28	=28	=28	=28	=28	=28	=28	=28	=28	=28	=28	=28
8G\L	.	(16g/LL	.	(16b\LL	.	1ryy	1ryy	1r	.	1ryy	1ryy	1ryy
.	.	16a/J)	.	16cc\J)	.	.	.	.	.	.	.	.
8G\	.	8g/J	.	8b\J	.	.	.	.	.	.	.	.
8F#X\	.	16r	.	16r	.	.	.	.	.	.	.	.
.	.	16a/KL	.	16cc\KL	.	.	.	.	.	.	.	.
8F#\J	.	8g/J	.	8b\J	.	.	.	.	.	.	.	.
!LO:TX:t=P:problem=mixed beam	!	!	!	!	!	!	!	!	!	!	!	!
8E\L	.	16r	.	16r	.	.	.	.	.	.	.	.
.	.	16a/KL	.	16cc\KL	.	.	.	.	.	.	.	.
8E\	.	8g/J	.	8b\J	.	.	.	.	.	.	.	.
8BB/	.	16r	.	16r	.	.	.	.	.	.	.	.
.	.	16a/KL	.	16cc\KL	.	.	.	.	.	.	.	.
8GG/J	.	8g/J	.	8b\J	.	.	.	.	.	.	.	.
=29	=29	=29	=29	=29	=29	=29	=29	=29	=29	=29	=29	=29
8C/L	.	4cc\	.	4ee\	.	1ryy	1ryy	1r	.	1ryy	1ryy	1ryy
8AA/	.	.	.	.	.	.	.	.	.	.	.	.
8D/	.	(16b\LL	.	(16dd\LL	.	.	.	.	.	.	.	.
.	.	16a\)	.	16cc\)	.	.	.	.	.	.	.	.
8DD/J	.	(16a\	.	(16cc\	.	.	.	.	.	.	.	.
.	.	16g\JJ)	.	16b\JJ)	.	.	.	.	.	.	.	.
!	!	!LO:LB:g=original	!	!	!	!	!	!	!	!	!	!
!LO:TX:t=P:problem=mixed beam	!LO:DY:a:t=pia	!	!LO:DY:a:t=pia&colon;	!	!LO:DY:a:t=pia.	!	!	!	!	!	!	!
8GG/L	p	(16g/LL	p	(16b\LL	p	.	.	.	.	.	.	.
.	.	16a/J)	.	16cc\J)	.	.	.	.	.	.	.	.
8G\	.	8g/J	.	8b\J	.	.	.	.	.	.	.	.
8F#X\	.	16r	.	16r	.	.	.	.	.	.	.	.
.	.	16a/KL	.	16cc\KL	.	.	.	.	.	.	.	.
8F#\J	.	8g/J	.	8b\J	.	.	.	.	.	.	.	.
=30	=30	=30	=30	=30	=30	=30	=30	=30	=30	=30	=30	=30
!LO:TX:t=P:problem=mixed beam	!	!	!	!	!	!	!	!	!	!	!	!
8E\L	.	16r	.	16r	.	1ryy	1ryy	1r	.	1ryy	1ryy	1ryy
.	.	16a/KL	.	16cc\KL	.	.	.	.	.	.	.	.
8E\	.	8g/J	.	8b\J	.	.	.	.	.	.	.	.
8BB/	.	16r	.	16r	.	.	.	.	.	.	.	.
.	.	16a/KL	.	16cc\KL	.	.	.	.	.	.	.	.
8GG/J	.	8g/J	.	8b\J	.	.	.	.	.	.	.	.
8C/L	.	4cc\	.	4ee\	.	.	.	.	.	.	.	.
8AA/	.	.	.	.	.	.	.	.	.	.	.	.
8D/	.	(16b\LL	.	(16dd\LL	.	.	.	.	.	.	.	.
.	.	16a\)	.	16cc\)	.	.	.	.	.	.	.	.
8DD/J	.	(16a\	.	(16cc\	.	.	.	.	.	.	.	.
.	.	16g\JJ)	.	16b\JJ)	.	.	.	.	.	.	.	.
=31	=31	=31	=31	=31	=31	=31	=31	=31	=31	=31	=31	=31
!	!LO:DY:a:t=for	!LO:TX:t=P:problem=mixed beam	!LO:DY:a:t=for	!	!LO:DY:a:t=for	!	!	!	!	!	!	!
8GG/L	f	16g/LL	f	16b\LL	f	1ryy	1ryy	1r	.	1ryy	1ryy	1ryy
.	.	16gg\	.	16gg\	.	.	.	.	.	.	.	.
8AA/	.	16ff#X\	.	16ff#X\	.	.	.	.	.	.	.	.
.	.	16ee\JJ	.	16ee\JJ	.	.	.	.	.	.	.	.
8BB/	.	16dd\LL	.	16dd\LL	.	.	.	.	.	.	.	.
.	.	16cc\	.	16cc\	.	.	.	.	.	.	.	.
8C/J	.	16b\	.	16b\	.	.	.	.	.	.	.	.
.	.	16a\JJ	.	16a\JJ	.	.	.	.	.	.	.	.
!	!	!	!	!LO:LB:g=original	!	!	!	!	!	!	!	!
8D/L	.	4g/	.	4g/	.	.	.	.	.	.	.	.
8C/	.	.	.	.	.	.	.	.	.	.	.	.
8D/	.	4aT/	.	4aT/	.	.	.	.	.	.	.	.
8DD/J	.	.	.	.	.	.	.	.	.	.	.	.
!LO:LB:g=original	!	!	!	!	!	!	!	!	!	!	!	!
=32	=32	=32	=32	=32	=32	=32	=32	=32	=32	=32	=32	=32
4GG/	.	8g/L	.	8g/L	.	1ryy	1ryy	2r	.	1ryy	1ryy	1ryy
.	.	16d/L	.	16d/L	.	.	.	.	.	.	.	.
.	.	16B/JJ	.	16B/JJ	.	.	.	.	.	.	.	.
4r	.	4G/	.	4G/	.	.	.	.	.	.	.	.
!LO:TX:t=P:problem=mixed beam	!LO:DY:a:t=pia.	!	!LO:DY:a:t=pia&colon;	!	!LO:DY:a:t=pia.	!	!	!	!	!	!	!
8GG/L	p	8B/L	p	8g/L	p	.	.	8g\	Spi-	.	.	.
8G\J	.	8B/J	.	[8g/J	.	.	.	16g\	-ri-	.	.	.
.	.	.	.	.	.	.	.	16g\	-tus	.	.	.
4GG/	.	(32B/LLL	.	32g/LLL]	.	.	.	(32g\LLL	Sanc-	.	.	.
.	.	32A/)	.	32f#X/	.	.	.	32f#X\)	.	.	.	.
.	.	(32c/	.	(32a/	.	.	.	(32a\	.	.	.	.
.	.	32B/JJJ)	.	32g/JJJ)	.	.	.	32g\JJJ)	.	.	.	.
.	.	(32g/LLL	.	(32b\LLL	.	.	.	(32b\LLL	.	.	.	.
.	.	32f#X/)	.	32a\)	.	.	.	32a\)	.	.	.	.
.	.	(32a/	.	(32cc\	.	.	.	(32cc\	.	.	.	.
.	.	32g/JJJ)	.	32b\JJJ)	.	.	.	32b\JJJ)	.	.	.	.
=33	=33	=33	=33	=33	=33	=33	=33	=33	=33	=33	=33	=33
8r	.	8b/	.	8dd\	.	1ryy	1ryy	8dd\	.	1ryy	1ryy	1ryy
8GG/L	.	4b/	.	4dd\	.	.	.	4dd\	-te	.	.	.
8BB/	.	.	.	.	.	.	.	.	.	.	.	.
8D/J	.	8a/	.	8cc\	.	.	.	8cc\	.	.	.	.
8G\L	.	8d/L	.	16.b\LL	.	.	.	8b\L	De-	.	.	.
!	!	!	!	!LO:N:vis=32	!	!	!	!	!	!	!	!
.	.	.	.	(64a\LL	.	.	.	.	.	.	.	.
!	!	!	!	!LO:N:vis=32	!	!	!	!	!	!	!	!
.	.	.	.	64b\JJJJ)	.	.	.	.	.	.	.	.
8E\	.	(16e/L	.	(16cc\LL	.	.	.	(16cc\L	.	.	.	.
.	.	16c/JJ)	.	16a\JJ)	.	.	.	16a\JJ)	.	.	.	.
8D\	.	8B/L	.	8g/L	.	.	.	8g/L	.	.	.	.
8D\J	.	8A/J	.	8f#X/J	.	.	.	8f#X/J	.	.	.	.
=34	=34	=34	=34	=34	=34	=34	=34	=34	=34	=34	=34	=34
!	!	!	!	!LO:SIC:v:s=8qqf#/	!	!	!	!LO:SIC:v:s=8qqf#/	!	!	!	!
.	.	8qqA/	.	8qqf/	.	.	.	8qqf/	.	.	.	.
8G\L	.	4B/	.	4g/	.	1ryy	1ryy	4g/	-us	1ryy	1ryy	1ryy
8D\J	.	.	.	.	.	.	.	.	.	.	.	.
4GG/	.	4r	.	4r	.	.	.	4r	.	.	.	.
!LO:TX:t=P:problem=mixed beam	!	!	!	!	!	!	!	!	!	!	!	!
8AA/L	.	8c/L	.	8a/L	.	.	.	8a\	mi-	.	.	.
8A\J	.	8c/J	.	[8a/J	.	.	.	8a\	-se-	.	.	.
4AA/	.	(32c/LLL	.	32a/LLL]	.	.	.	(32a\LLL	-re-	.	.	.
.	.	32B/)	.	(32g#X/	.	.	.	32g#X\)	.	.	.	.
.	.	(32d/	.	32b/	.	.	.	(32b\	.	.	.	.
.	.	32c/JJJ)	.	32a/JJJ)	.	.	.	32a\JJJ)	.	.	.	.
.	.	(32a/LLL	.	(32cc\LLL	.	.	.	(32cc\LLL	.	.	.	.
.	.	32g#X/)	.	32b\)	.	.	.	32b\)	.	.	.	.
.	.	(32b/	.	(32dd\	.	.	.	(32dd\	.	.	.	.
.	.	32a/JJJ)	.	32cc\JJJ)	.	.	.	32cc\JJJ)	.	.	.	.
!	!	!LO:LB:g=original	!	!	!	!	!	!LO:LB:g=original	!	!	!	!
=35	=35	=35	=35	=35	=35	=35	=35	=35	=35	=35	=35	=35
8r	.	8cc\	.	8ee\	.	1ryy	1ryy	8ee\	.	1ryy	1ryy	1ryy
8AA/L	.	4cc\	.	4ee\	.	.	.	4ee\	.	.	.	.
8C/	.	.	.	.	.	.	.	.	.	.	.	.
8E/J	.	8b\	.	8dd\	.	.	.	8dd\	.	.	.	.
!LO:TX:t=P:problem=mixed beam	!	!	!	!	!	!	!	!	!	!	!	!
8A\L	.	8a/L	.	8cc\L	.	.	.	8cc\L	.	.	.	.
8AA/	.	(16g#X/L	.	(16b\L	.	.	.	(16b\L	.	.	.	.
.	.	16a/JJ)	.	16cc\JJ)	.	.	.	16cc\JJ)	.	.	.	.
8F\	.	8b/L	.	8dd\L	.	.	.	8dd\	.	.	.	.
8D\J	.	8a/J	.	8cc\J	.	.	.	8cc\	-re	.	.	.
=36	=36	=36	=36	=36	=36	=36	=36	=36	=36	=36	=36	=36
8E\L	.	8a/L	.	8cc\L	.	1ryy	1ryy	8cc\	no-	1ryy	1ryy	1ryy
8E\J	.	8g#X/J	.	8b\J	.	.	.	8b\	-bis	.	.	.
16E\LL	.	4r	.	4r	.	.	.	4r	.	.	.	.
16D\	.	.	.	.	.	.	.	.	.	.	.	.
16C#X\	.	.	.	.	.	.	.	.	.	.	.	.
16BB\JJ	.	.	.	.	.	.	.	.	.	.	.	.
8AA/L	.	8cc#X\L	.	8ee\L	.	.	.	4ee\	mi-	.	.	.
8AA/	.	8cc#\	.	8ee\	.	.	.	.	.	.	.	.
.	.	.	.	.	.	.	.	8qqdd/	.	.	.	.
8AA/	.	8cc#\	.	8ee\	.	.	.	8cc#X\L	-se-	.	.	.
8AA/J	.	8cc#\J	.	8ee\J	.	.	.	(16b\L	.	.	.	.
.	.	.	.	.	.	.	.	16a\JJ)	.	.	.	.
!	!	!	!	!LO:LB:g=original	!	!	!	!	!	!	!	!
=37	=37	=37	=37	=37	=37	=37	=37	=37	=37	=37	=37	=37
8AA/L	.	8ee\L	.	8gg\L	.	1ryy	1ryy	4gg\	-re-	1ryy	1ryy	1ryy
8AA/	.	8ee\J	.	8gg\J	.	.	.	.	.	.	.	.
8AA/	.	(16ggn\LL	.	(16bb-X\LL	.	.	.	16bb-X\LL	.	.	.	.
.	.	16ee\)	.	16gg\)	.	.	.	16gg\JJ	.	.	.	.
8AA/J	.	(16dd\	.	(16ff\	.	.	.	16ff\LL	-re	.	.	.
.	.	16cc#X\JJ)	.	16ee\JJ)	.	.	.	16ee\JJ	.	.	.	.
8D\L	.	(16dd\LL	.	(16ff\LL	.	.	.	16ff\LL	no-	.	.	.
.	.	16cc#\)	.	16ee\)	.	.	.	16ee\	.	.	.	.
8B-X\	.	(16ee\	.	(16gg\	.	.	.	(16gg\	.	.	.	.
.	.	16dd\JJ)	.	16ff\JJ)	.	.	.	16ff\JJ)	.	.	.	.
8G\	.	(16g/LL	.	(16ee\LL	.	.	.	(16ee\LL	.	.	.	.
.	.	16f/)	.	16dd\)	.	.	.	16dd\)	.	.	.	.
8A\J	.	(16e/	.	(16cc#X\	.	.	.	(16cc#X\	.	.	.	.
.	.	16g/JJ)	.	16ee\JJ)	.	.	.	16ee\JJ)	.	.	.	.
=38	=38	=38	=38	=38	=38	=38	=38	=38	=38	=38	=38	=38
.	.	8qqg/	.	4qqee/	.	.	.	8qqee/	.	.	.	.
8D\L	.	4f/	.	4dd\	.	1ryy	1ryy	4dd\	-bis	1ryy	1ryy	1ryy
16F\L	.	.	.	.	.	.	.	.	.	.	.	.
16E\JJ	.	.	.	.	.	.	.	.	.	.	.	.
16D/LL	.	4r	.	4r	.	.	.	4r	.	.	.	.
16Cn/	.	.	.	.	.	.	.	.	.	.	.	.
16BB/	.	.	.	.	.	.	.	.	.	.	.	.
16AA/JJ	.	.	.	.	.	.	.	.	.	.	.	.
8GG/L	.	8b\L	.	8dd\L	.	.	.	4dd\	mi-	.	.	.
8GG/	.	8b\	.	8dd\	.	.	.	.	.	.	.	.
.	.	.	.	.	.	.	.	8qqccn/	.	.	.	.
8GG/	.	8b\	.	8dd\	.	.	.	8b\L	-se-	.	.	.
8GG/J	.	8b\J	.	8dd\J	.	.	.	(16a\L	.	.	.	.
.	.	.	.	.	.	.	.	16g\JJ)	.	.	.	.
!LO:LB:g=original	!	!	!	!	!	!	!	!	!	!	!	!
=39	=39	=39	=39	=39	=39	=39	=39	=39	=39	=39	=39	=39
8GG/L	.	8dd\L	.	8ff\L	.	1ryy	1ryy	4ff\	-re-	1ryy	1ryy	1ryy
8GG/	.	8dd\J	.	8ff\J	.	.	.	.	.	.	.	.
8GG/	.	(16ff\LL	.	(16aa\LL	.	.	.	(16aa\LL	.	.	.	.
.	.	16dd\)	.	16ff\)	.	.	.	16ff\JJ)	.	.	.	.
8GG/J	.	(16cc\	.	(16ee\	.	.	.	(16ee\LL	-re	.	.	.
.	.	16b\JJ)	.	16dd\JJ)	.	.	.	16dd\JJ)	.	.	.	.
8C\L	.	(16cc\LL	.	(16ee\LL	.	.	.	(16ee\LL	no-	.	.	.
.	.	16b\)	.	16dd\)	.	.	.	16dd\)	.	.	.	.
8A\	.	(16dd\	.	(16ff\	.	.	.	(16ff\	.	.	.	.
.	.	16cc\JJ)	.	16ee\JJ)	.	.	.	16ee\JJ)	.	.	.	.
8F\	.	(16f/LL	.	(16dd\LL	.	.	.	(16dd\LL	.	.	.	.
.	.	16e/)	.	16cc\)	.	.	.	16cc\)	.	.	.	.
8G\J	.	(16d/	.	(16bn\	.	.	.	16b\	.	.	.	.
.	.	16f/JJ)	.	16dd\JJ)	.	.	.	16dd\JJ	.	.	.	.
!	!	!	!	!	!	!	!	!LO:LB:g=original	!	!	!	!
=40	=40	=40	=40	=40	=40	=40	=40	=40	=40	=40	=40	=40
.	.	8qqf/	.	8qqdd/	.	.	.	.	.	.	.	.
4C/	.	4e/	.	4cc\	.	1ryy	1ryy	4cc\	-bis	1ryy	1ryy	1ryy
8c\L	.	8cc\L	.	8ee\L	.	.	.	8ee\	mi-	.	.	.
8B\J	.	8cc\J	.	8ee\J	.	.	.	8ee\	-se-	.	.	.
4A\	.	(16cc\LL	.	(16ee\LL	.	.	.	4ee\	-re-	.	.	.
.	.	16dd\J)	.	16ff\J)	.	.	.	.	.	.	.	.
.	.	8cc\J	.	8ee\J	.	.	.	.	.	.	.	.
4G\	.	16r	.	16r	.	.	.	4ee\	-re	.	.	.
.	.	16dd\KL	.	16ff\KL	.	.	.	.	.	.	.	.
.	.	8cc\J	.	8ee\J	.	.	.	.	.	.	.	.
!	!	!LO:LB:g=original	!	!	!	!	!	!	!	!	!	!
=41	=41	=41	=41	=41	=41	=41	=41	=41	=41	=41	=41	=41
8F#X\L	.	16cc\LL	.	16ee\LL	.	1ryy	1ryy	2ee\	no-	1ryy	1ryy	1ryy
.	.	(16ee'\	.	(16ccc'\	.	.	.	.	.	.	.	.
8F#\	.	16ee'\	.	16ccc'\	.	.	.	.	.	.	.	.
.	.	16ee'\JJ)	.	16ccc'\JJ)	.	.	.	.	.	.	.	.
8F#\	.	(16ee'\LL	.	16ccc'\LL	.	.	.	.	.	.	.	.
.	.	16ee'\	.	16ccc'\	.	.	.	.	.	.	.	.
8F#\J	.	16ee'\	.	16ccc'\	.	.	.	.	.	.	.	.
.	.	16ee'\JJ)	.	16ccc'\JJ	.	.	.	.	.	.	.	.
.	.	8qqee/	.	.	.	.	.	8qqee/	.	.	.	.
8G\L	.	4dd\	.	4bb\	.	.	.	4dd\	-bis	.	.	.
16G\L	.	.	.	.	.	.	.	.	.	.	.	.
16A\JJ	.	.	.	.	.	.	.	.	.	.	.	.
16G\LL	.	4r	.	4r	.	.	.	4r	.	.	.	.
16Fn\	.	.	.	.	.	.	.	.	.	.	.	.
16E\	.	.	.	.	.	.	.	.	.	.	.	.
16D\JJ	.	.	.	.	.	.	.	.	.	.	.	.
!	!	!	!	!LO:LB:g=original	!	!	!	!	!	!	!	!
=42	=42	=42	=42	=42	=42	=42	=42	=42	=42	=42	=42	=42
!LO:TX:t=P:problem=mixed beam	!	!	!	!	!	!	!	!	!	!	!	!
8C/L	.	8e/L	.	8cc\L	.	1ryy	1ryy	8cc\	San-	1ryy	1ryy	1ryy
8c\J	.	[8e/J	.	[8cc\J	.	.	.	8cc\	-cta	.	.	.
4C/	.	32e/LLL]	.	32cc\LLL]	.	.	.	(32cc\LLL	Sanc-	.	.	.
.	.	32d/	.	(32b\	.	.	.	32b\)	.	.	.	.
.	.	(32f/	.	32dd\)	.	.	.	(32dd\	.	.	.	.
.	.	32e/JJJ)	.	32cc\JJJ	.	.	.	32cc\JJJ)	.	.	.	.
.	.	(32cc\LLL	.	(32ee\LLL	.	.	.	(32ee\LLL	.	.	.	.
.	.	32b\)	.	32dd\)	.	.	.	32dd\JJJ)	.	.	.	.
.	.	(32dd\	.	(32ff\	.	.	.	(32ff\LLL	-ta	.	.	.
.	.	32cc\JJJ)	.	32ee\JJJ)	.	.	.	32ee\JJJ)	.	.	.	.
8r	.	8ee\	.	8gg\	.	.	.	8gg\	Tri-	.	.	.
8C\L	.	4ee\	.	4gg\	.	.	.	8gg\	-ni-	.	.	.
8E\	.	.	.	.	.	.	.	8gg\L	-taſ	.	.	.
8G\J	.	8dd\	.	8ff\	.	.	.	8ff\J	.	.	.	.
=43	=43	=43	=43	=43	=43	=43	=43	=43	=43	=43	=43	=43
8c\L	.	16.gT/LL	.	16.eet\LL	.	1ryy	1ryy	8ee\	u-	1ryy	1ryy	1ryy
!	!	!LO:N:vis=32	!	!LO:N:vis=32	!	!	!	!	!	!	!	!
.	.	(64f/LL	.	(64dd\LL	.	.	.	.	.	.	.	.
!	!	!LO:N:vis=32	!	!LO:N:vis=32	!	!	!	!	!	!	!	!
.	.	64g/JJJJ)	.	64ee\JJJJ)	.	.	.	.	.	.	.	.
8A\	.	(16a/LL	.	16ff\LL	.	.	.	(16ff\LL	-nus	.	.	.
.	.	16f/JJ)	.	16dd\JJ	.	.	.	16dd\JJ)	.	.	.	.
8F\	.	8c/L	.	8a\L	.	.	.	8a\L	De-	.	.	.
8G\J	.	8f/J	.	8b\J	.	.	.	8b\J	.	.	.	.
.	.	8qqf/	.	16qqb/	.	.	.	8qqb/	.	.	.	.
4C/	.	4e/	.	4cc\	.	.	.	4cc\	-us	.	.	.
!	!	!	!	!	!	!	!	!LO:TX:t=P:problem=brak pauzy ćwierćnutowej	!	!	!	!
8E/L	.	4r	.	4r	.	.	.	4ryy	.	.	.	.
8D/J	.	.	.	.	.	.	.	.	.	.	.	.
=44	=44	=44	=44	=44	=44	=44	=44	=44	=44	=44	=44	=44
8C/L	.	16r	.	16r	.	1ryy	1ryy	4gg\	San-	1ryy	1ryy	1ryy
.	.	16ee\KL	.	16gg\KL	.	.	.	.	.	.	.	.
8C/	.	8ee\J	.	8gg\J	.	.	.	.	.	.	.	.
!	!	!	!	!	!	!	!	!LO:TUP:problem=klamra łukowa	!	!	!	!
8C/	.	16r	.	16r	.	.	.	24gg\LL	.	.	.	.
.	.	.	.	.	.	.	.	24ff\	.	.	.	.
.	.	16ee\KL	.	16gg\KL	.	.	.	.	.	.	.	.
.	.	.	.	.	.	.	.	24ee\JJ	.	.	.	.
!	!	!	!	!	!	!	!	!LO:TUP:problem=klamra łukowa	!	!	!	!
8C/J	.	8ee\J	.	8gg\J	.	.	.	24ee\LL	-cta	.	.	.
.	.	.	.	.	.	.	.	24dd\	.	.	.	.
.	.	.	.	.	.	.	.	24cc\JJ	.	.	.	.
!LO:TX:t=P:problem=mixed beam	!	!	!	!	!	!	!	!	!	!	!	!
.	.	.	.	.	.	.	.	8qqcc/	.	.	.	.
8C/L	.	8gg\L	.	8bb-X\L	.	.	.	8.b-X\	Tri-	.	.	.
8C/	.	8gg\	.	8bb-\	.	.	.	.	.	.	.	.
.	.	.	.	.	.	.	.	16b-\	-ni-	.	.	.
.	.	.	.	.	.	.	.	8qqb-/	.	.	.	.
8F\	.	8ff\	.	8aa\	.	.	.	4a\	-tas	.	.	.
8FF/J	.	8ff\J	.	8aa\J	.	.	.	.	.	.	.	.
!	!	!	!	!	!	!	!	!LO:LB:g=original	!	!	!	!
=45	=45	=45	=45	=45	=45	=45	=45	=45	=45	=45	=45	=45
8D\L	.	16r	.	16r	.	1ryy	1ryy	4aa\	u-	1ryy	1ryy	1ryy
.	.	16ff#X\KL	.	16aa\KL	.	.	.	.	.	.	.	.
8D\	.	8ff#\J	.	8aa\J	.	.	.	.	.	.	.	.
!	!	!	!	!	!	!	!	!LO:TUP:problem=klamra łukowa	!	!	!	!
8D\	.	16r	.	16r	.	.	.	24aa\LL	-nus	.	.	.
.	.	.	.	.	.	.	.	24gg\	.	.	.	.
.	.	16ff#\KL	.	16aa\KL	.	.	.	.	.	.	.	.
.	.	.	.	.	.	.	.	24ff#X\JJ	.	.	.	.
!	!	!	!	!	!	!	!	!LO:TUP:problem=klamra łukowa	!	!	!	!
8D\J	.	8ff#\J	.	8aa\J	.	.	.	24ff#\LL	.	.	.	.
.	.	.	.	.	.	.	.	24ee\	.	.	.	.
.	.	.	.	.	.	.	.	24dd\JJ	.	.	.	.
!LO:TX:t=P:problem=mixed beam	!	!	!	!	!	!	!	!	!	!	!	!
.	.	.	.	.	.	.	.	8qqdd/	.	.	.	.
8D\L	.	8aa\L	.	8ccc\L	.	.	.	4cc\	De-	.	.	.
8D\	.	8aa\	.	8ccc\	.	.	.	.	.	.	.	.
.	.	.	.	.	.	.	.	8qqcc/	.	.	.	.
8G\	.	8gg\	.	8bbn\	.	.	.	4bn\	-us	.	.	.
8GG/J	.	8gg\J	.	8bb\J	.	.	.	.	.	.	.	.
=46	=46	=46	=46	=46	=46	=46	=46	=46	=46	=46	=46	=46
8C\L	.	8ee\	.	8gg\	.	1ryy	1ryy	8gg\	mi-	1ryy	1ryy	1ryy
8C\	.	4ee\	.	4gg\	.	.	.	8gg\	-se-	.	.	.
8C\	.	.	.	.	.	.	.	8gg\L	-re-	.	.	.
8C\J	.	(16dd\LL	.	(16ff\LL	.	.	.	(16ffn\L	.	.	.	.
.	.	16cc\JJ)	.	16ee\JJ)	.	.	.	16ee\JJ)	.	.	.	.
!LO:LB:g=original	!	!	!	!	!	!	!	!	!	!	!	!
!LO:TX:t=P:problem=mixed beam	!	!LO:TX:t=P:problem=mixed beam	!	!LO:TX:t=P:problem=mixed beam	!	!	!	!	!	!	!	!
8G|>\L	.	8dd\L	.	8ff\L	.	.	.	4ff\	-re	.	.	.
8GG|</	.	8G|</	.	8G/	.	.	.	.	.	.	.	.
8BB|</	.	8B|</	.	8B/	.	.	.	4r	.	.	.	.
8D|</J	.	8d|</J	.	8d/J	.	.	.	.	.	.	.	.
!	!	!LO:LB:g=original	!	!	!	!	!	!	!	!	!	!
=47	=47	=47	=47	=47	=47	=47	=47	=47	=47	=47	=47	=47
!LO:TX:t=P:problem=mixed beam	!	!	!	!	!	!	!	!	!	!	!	!
8G\L	.	8dd\	.	8ff\	.	1ryy	1ryy	8ff\	mi-	1ryy	1ryy	1ryy
8GG/	.	4dd\	.	4ff\	.	.	.	8ff\	-se-	.	.	.
8GG/	.	.	.	.	.	.	.	8ff\L	-re-	.	.	.
8GG/J	.	(16cc\LL	.	(16ee\LL	.	.	.	16ee\L	.	.	.	.
.	.	16b\JJ)	.	16dd\JJ)	.	.	.	16dd\JJ	.	.	.	.
!	!	!LO:TX:t=P:problem=mixed beam	!	!LO:TX:t=P:problem=mixed beam	!	!	!	!	!	!	!	!
!	!	!	!	!LO:LB:g=original	!	!	!	!	!	!	!	!
8C\L	.	8cc\L	.	8ee\L	.	.	.	4ee\	-re	.	.	.
8C\	.	8c|</	.	8c/	.	.	.	.	.	.	.	.
8E\	.	8e|</	.	8e/	.	.	.	4r	.	.	.	.
8G\J	.	8g|</J	.	8g/J	.	.	.	.	.	.	.	.
=48	=48	=48	=48	=48	=48	=48	=48	=48	=48	=48	=48	=48
!LO:TX:t=P:problem=mixed beam	!	!	!	!	!	!	!	!	!	!	!	!
8C/L	.	16cc\LL	.	(16ee\LL	.	1ryy	1ryy	(16ee\LL	mi-	1ryy	1ryy	1ryy
.	.	16dd\J	.	16ff\J)	.	.	.	16ff\J)	.	.	.	.
8c\	.	8cc\J	.	8ee\J	.	.	.	8ee\J	.	.	.	.
8B\	.	16r	.	16r	.	.	.	(16ee\LL	-se-	.	.	.
.	.	16dd\KL	.	16ff\KL	.	.	.	16ff\J)	.	.	.	.
8B\J	.	8cc\J	.	8ee\J	.	.	.	8ee\J	.	.	.	.
8A\L	.	16r	.	16r	.	.	.	(16ee\LL	-re-	.	.	.
.	.	16dd\KL	.	16ff\KL	.	.	.	16ff\J)	.	.	.	.
8A\	.	8cc\J	.	8ee\J	.	.	.	8ee\J	.	.	.	.
8E\	.	16r	.	16r	.	.	.	(16ee\LL	-re	.	.	.
.	.	16dd\KL	.	16ff\KL	.	.	.	16ff\J)	.	.	.	.
8C\J	.	8cc\J	.	8ee\J	.	.	.	8ee\J	.	.	.	.
=49	=49	=49	=49	=49	=49	=49	=49	=49	=49	=49	=49	=49
!LO:TX:t=P:problem=mixed beam	!	!	!	!	!	!	!	!	!	!	!	!
8F\L	.	4ff\	.	4aa\	.	1ryy	1ryy	4aa\	no-	1ryy	1ryy	1ryy
8D\	.	.	.	.	.	.	.	.	.	.	.	.
8G\	.	(16ee\LL	.	(16gg\LL	.	.	.	(16gg\LL	.	.	.	.
.	.	16dd\)	.	16ff\)	.	.	.	16ff\JJ)	.	.	.	.
8GG/J	.	(16dd\	.	(16ff\	.	.	.	(16ff\LL	-bis	.	.	.
.	.	16cc\JJ)	.	16ee\JJ)	.	.	.	16ee\JJ)	.	.	.	.
!LO:TX:t=P:problem=mixed beam	!	!	!	!	!	!	!	!	!	!	!	!
8C/L	.	(16cc\LL	.	(16ee\LL	.	.	.	(16ee\LL	mi-	.	.	.
.	.	16dd\J)	.	16ff\J)	.	.	.	16ff\J)	.	.	.	.
8c\	.	8cc\J	.	8ee\J	.	.	.	8ee\J	.	.	.	.
8B\	.	16r	.	16r	.	.	.	(16ee\LL	-se-	.	.	.
.	.	16dd\KL	.	16ff\KL	.	.	.	16ff\J)	.	.	.	.
8B\J	.	8cc\J	.	8ee\J	.	.	.	8ee\J	.	.	.	.
!	!	!	!	!	!	!	!	!LO:LB:g=original	!	!	!	!
=50	=50	=50	=50	=50	=50	=50	=50	=50	=50	=50	=50	=50
8A\L	.	16r	.	16r	.	1ryy	1ryy	(16ee\LL	-re-	1ryy	1ryy	1ryy
.	.	16dd\KL	.	16ff\KL	.	.	.	16ff\J)	.	.	.	.
8A\	.	8cc\J	.	8ee\J	.	.	.	8ee\J	.	.	.	.
8E\	.	16r	.	16r	.	.	.	(16ee\LL	-re	.	.	.
.	.	16dd\KL	.	16ff\KL	.	.	.	16ff\J)	.	.	.	.
8C\J	.	8cc\J	.	8ee\J	.	.	.	8ee\J	.	.	.	.
!LO:TX:t=P:problem=mixed beam	!	!	!	!	!	!	!	!	!	!	!	!
8F\L	.	4a/	.	4ff\	.	.	.	4ff\	no-	.	.	.
8D\	.	.	.	.	.	.	.	.	.	.	.	.
8G\	.	(16g/LL	.	(16ee\LL	.	.	.	(16ee\LL	.	.	.	.
.	.	16f/)	.	16dd\)	.	.	.	16dd\)	.	.	.	.
8GG/J	.	(16f/	.	(16dd\	.	.	.	(16dd\	.	.	.	.
.	.	16e/JJ)	.	16cc\JJ)	.	.	.	16cc\JJ)	.	.	.	.
=51	=51	=51	=51	=51	=51	=51	=51	=51	=51	=51	=51	=51
!	!LO:DY:a:t=for&colon;	!	!	!LO:TX:t=P:problem=mixed beam	!LO:DY:a	!	!	!	!	!	!	!
!	!	!	!LO:DY:a:t=for	!	!	!	!	!	!	!	!	!
16C\LL	f	16e/LL	f	16cc/LL	f	1ryy	1ryy	4cc\	-bis	1ryy	1ryy	1ryy
16C\	.	16c/	.	16c/	.	.	.	.	.	.	.	.
16D\	.	16d/	.	16d/	.	.	.	.	.	.	.	.
16E\JJ	.	16e/JJ	.	16e/JJ	.	.	.	.	.	.	.	.
16F\LL	.	16f/LL	.	16f/LL	.	.	.	4r	.	.	.	.
16G\	.	16g/	.	16g/	.	.	.	.	.	.	.	.
16A\	.	16a/	.	16a/	.	.	.	.	.	.	.	.
16B\JJ	.	16b/JJ	.	16b/JJ	.	.	.	.	.	.	.	.
4c\	.	16cc\LL	.	16cc\LL	.	.	.	2r	.	.	.	.
.	.	16cc\	.	16cc\	.	.	.	.	.	.	.	.
.	.	16dd\	.	16dd\	.	.	.	.	.	.	.	.
.	.	16ee\JJ	.	16ee\JJ	.	.	.	.	.	.	.	.
4r	.	16ff\LL	.	16ff\LL	.	.	.	.	.	.	.	.
.	.	16gg\	.	16gg\	.	.	.	.	.	.	.	.
.	.	16aa\	.	16aa\	.	.	.	.	.	.	.	.
.	.	16bb\JJ	.	16bb\JJ	.	.	.	.	.	.	.	.
!	!	!LO:LB:g=original	!	!	!	!	!	!	!	!	!	!
=52	=52	=52	=52	=52	=52	=52	=52	=52	=52	=52	=52	=52
!	!	!LO:TX:t=P:problem=mixed beam	!	!LO:TX:t=P:problem=mixed beam	!	!	!	!	!	!	!	!
8r	.	8ccc\L	.	8ccc\L	.	1ryy	1ryy	2r	.	1ryy	1ryy	1ryy
8A\L	.	8a/	.	8a\	.	.	.	.	.	.	.	.
8G\	.	8g/	.	8g\	.	.	.	.	.	.	.	.
8F#X\J	.	8f#X/J	.	8f#X\J	.	.	.	.	.	.	.	.
.	.	8qqg/	.	8qqg;/	.	.	.	.	.	.	.	.
4G;\	.	2G;/	.	2G;/	.	.	.	4cc;\	no-	.	.	.
4GG/	.	.	.	.	.	.	.	4ddT\	.	.	.	.
!	!	!	!	!LO:LB:g=original	!	!	!	!	!	!	!	!
=53	=53	=53	=53	=53	=53	=53	=53	=53	=53	=53	=53	=53
!LO:TX:i:a:t=Da capo ad Signum [2 fermaty]	!	!LO:TX:i:a:t=Da capo usq(ue) ad Signum [2 fermaty]	!	!LO:TX:i:a:t=Da capo ad Signum [2 fermaty]	!	!	!	!	!	!	!	!
1ryy	.	1ryy	.	1ryy	.	1ryy	1ryy	4cc\	-bis.	1ryy	1ryy	1ryy
.	.	.	.	.	.	.	.	4r	.	.	.	.
.	.	.	.	.	.	.	.	2r	.	.	.	.
=54	=54	=54	=54	=54	=54	=54	=54	=54	=54	=54	=54	=54
1ryy	.	1ryy	.	1ryy	.	1ryy	1ryy	1r	.	1ryy	1ryy	1ryy
=55	=55	=55	=55	=55	=55	=55	=55	=55	=55	=55	=55	=55
1ryy	.	1ryy	.	1ryy	.	1ryy	1ryy	1r	.	1ryy	1ryy	1ryy
=56	=56	=56	=56	=56	=56	=56	=56	=56	=56	=56	=56	=56
1ryy	.	1ryy	.	1ryy	.	1ryy	1ryy	1r	.	1ryy	1ryy	1ryy
=57	=57	=57	=57	=57	=57	=57	=57	=57	=57	=57	=57	=57
1ryy	.	1ryy	.	1ryy	.	1ryy	1ryy	1r	.	1ryy	1ryy	1ryy
=58	=58	=58	=58	=58	=58	=58	=58	=58	=58	=58	=58	=58
1ryy	.	1ryy	.	1ryy	.	1ryy	1ryy	1r	.	1ryy	1ryy	1ryy
=59	=59	=59	=59	=59	=59	=59	=59	=59	=59	=59	=59	=59
1ryy	.	1ryy	.	1ryy	.	1ryy	1ryy	1r	.	1ryy	1ryy	1ryy
=60	=60	=60	=60	=60	=60	=60	=60	=60	=60	=60	=60	=60
1ryy	.	1ryy	.	1ryy	.	1ryy	1ryy	1r	.	1ryy	1ryy	1ryy
=61	=61	=61	=61	=61	=61	=61	=61	=61	=61	=61	=61	=61
1ryy	.	1ryy	.	1ryy	.	1ryy	1ryy	1r	.	1ryy	1ryy	1ryy
=62	=62	=62	=62	=62	=62	=62	=62	=62	=62	=62	=62	=62
1ryy	.	1ryy	.	1ryy	.	1ryy	1ryy	1r	.	1ryy	1ryy	1ryy
=63	=63	=63	=63	=63	=63	=63	=63	=63	=63	=63	=63	=63
1ryy	.	1ryy	.	1ryy	.	1ryy	1ryy	1r	.	1ryy	1ryy	1ryy
=64	=64	=64	=64	=64	=64	=64	=64	=64	=64	=64	=64	=64
1ryy	.	1ryy	.	1ryy	.	1ryy	1ryy	1r	.	1ryy	1ryy	1ryy
=65	=65	=65	=65	=65	=65	=65	=65	=65	=65	=65	=65	=65
1ryy	.	1ryy	.	1ryy	.	1ryy	1ryy	1r	.	1ryy	1ryy	1ryy
=66	=66	=66	=66	=66	=66	=66	=66	=66	=66	=66	=66	=66
1ryy	.	1ryy	.	1ryy	.	1ryy	1ryy	1r	.	1ryy	1ryy	1ryy
=67	=67	=67	=67	=67	=67	=67	=67	=67	=67	=67	=67	=67
1ryy	.	1ryy	.	1ryy	.	1ryy	1ryy	1r	.	1ryy	1ryy	1ryy
==	==	==	==	==	==	==	==	==	==	==	==	==
*-	*-	*-	*-	*-	*-	*-	*-	*-	*-	*-	*-	*-
!!!system-decoration: (s1)[(g1)][(g2)][(g3)](s9)
!!!RDF**kern: > = above
!!!RDF**kern: < = below
!!!RDF**kern: | = vertical stroke
!!!ENC: Andrzej Kubiczek
!!!END: 2020-12-03
!!!ENC: Kamil Watkowski
!!!END: 2022-03-07
!!!YEC: Copyright 2022 Narodowy Instytut Fryderyka Chopina (https://polishscores.org)
!!!YEM: Licence CC BY 4.0 (https://creativecommons.org/licenses/by/4.0)
